SVG_Azure_Grouped/Generic/Azure Best Practices.svg

<?xml version="1.0" encoding="UTF-8" standalone="no"?>
<!-- Generated by Microsoft Visio, SVG Export Azure Best Practices.svg Page-1 -->

<svg
   xmlns:dc="http://purl.org/dc/elements/1.1/"
   xmlns:cc="http://creativecommons.org/ns#"
   xmlns:rdf="http://www.w3.org/1999/02/22-rdf-syntax-ns#"
   xmlns:svg="http://www.w3.org/2000/svg"
   xmlns="http://www.w3.org/2000/svg"
   xmlns:sodipodi="http://sodipodi.sourceforge.net/DTD/sodipodi-0.dtd"
   xmlns:inkscape="http://www.inkscape.org/namespaces/inkscape"
   width="0.78736138in"
   height="0.70868915in"
   viewBox="0 0 56.689928 51.025603"
   xml:space="preserve"
   class="st4"
   version="1.1"
   id="svg40"
   sodipodi:docname="Azure Best Practices.svg"
   style="font-size:12px;overflow:visible;color-interpolation-filters:sRGB;fill:none;fill-rule:evenodd;stroke-linecap:square;stroke-miterlimit:3"
   inkscape:version="0.92.5 (2060ec1f9f, 2020-04-08)"><metadata
   id="metadata44"><rdf:RDF><cc:Work
       rdf:about=""><dc:format>image/svg+xml</dc:format><dc:type
         rdf:resource="http://purl.org/dc/dcmitype/StillImage" /></cc:Work></rdf:RDF></metadata><sodipodi:namedview
   pagecolor="#ffffff"
   bordercolor="#666666"
   borderopacity="1"
   objecttolerance="10"
   gridtolerance="10"
   guidetolerance="10"
   inkscape:pageopacity="0"
   inkscape:pageshadow="2"
   inkscape:window-width="640"
   inkscape:window-height="480"
   id="namedview42"
   showgrid="false"
   inkscape:zoom="1.4869072"
   inkscape:cx="37.795348"
   inkscape:cy="34.006413"
   inkscape:window-x="0"
   inkscape:window-y="0"
   inkscape:window-maximized="0"
   inkscape:current-layer="svg40" />
	<style
   type="text/css"
   id="style2">
	<![CDATA[
		.st1 {fill:url(#grad0-6);stroke:none;stroke-linecap:butt;stroke-width:34}
		.st2 {fill:url(#grad0-10);stroke:none;stroke-linecap:butt;stroke-width:34}
		.st3 {fill:#ffffff;stroke:none;stroke-linecap:butt;stroke-width:11.956}
		.st4 {fill:none;fill-rule:evenodd;font-size:12px;overflow:visible;stroke-linecap:square;stroke-miterlimit:3}
	]]>
	</style>

	<defs
   id="Patterns_And_Gradients">
		<linearGradient
   id="grad0-6"
   x1="0"
   y1="102.02082"
   x2="45.687261"
   y2="102.02082"
   gradientTransform="scale(1.2408273,0.80591393)"
   gradientUnits="userSpaceOnUse">
			<stop
   offset="0"
   stop-color="#0078d4"
   stop-opacity="1"
   id="stop4" />
			<stop
   offset="0.82"
   stop-color="#5ea0ef"
   stop-opacity="1"
   id="stop6" />
		</linearGradient>
		<linearGradient
   id="grad0-10"
   x1="-5.1155188e-05"
   y1="148.06968"
   x2="20.071208"
   y2="148.06968"
   gradientTransform="scale(1.4124743,0.7079775)"
   gradientUnits="userSpaceOnUse">
			<stop
   offset="0.15"
   stop-color="#cccccc"
   stop-opacity="1"
   id="stop9" />
			<stop
   offset="1"
   stop-color="#707070"
   stop-opacity="1"
   id="stop11" />
		</linearGradient>
	</defs>
	<g
   id="g38"
   transform="translate(-34.000079,-33.9987)">
		<title
   id="title15">Page-1</title>
		<g
   id="group16680-1"
   transform="translate(34,-34.0157)">
			<title
   id="title17">Azure Best Practices.16680</title>
			<g
   id="group16681-2">
				<title
   id="title19">g16</title>
				<g
   id="shape16682-3"
   transform="translate(0,-14.2056)">
					<title
   id="title21">rect2</title>
					<path
   d="m 0,117.2 a 1.88981,1.84094 -180 0 0 1.89,1.84 H 54.8 a 1.88981,1.84094 -180 0 0 1.89,-1.84 V 84.06 A 1.88981,1.84094 -180 0 0 54.8,82.22 H 1.89 A 1.88981,1.84094 -180 0 0 0,84.06 Z"
   class="st1"
   id="path23"
   inkscape:connector-curvature="0"
   style="fill:url(#grad0-6);stroke:none;stroke-width:34;stroke-linecap:butt" />
				</g>
				<g
   id="shape16683-7"
   transform="translate(14.1732)">
					<title
   id="title26">path14</title>
					<path
   d="m 25.54,115.97 c -5.6,-0.86 -5.82,-4.79 -5.82,-11.14 H 8.6 c 0,6.35 -0.19,10.28 -5.8,11.14 A 3.14961,3.06817 -180 0 0 0,119.04 h 28.35 a 3.14961,3.06817 -180 0 0 -2.81,-3.07 z"
   class="st2"
   id="path28"
   inkscape:connector-curvature="0"
   style="fill:url(#grad0-10);stroke:none;stroke-width:34;stroke-linecap:butt" />
				</g>
				<g
   id="shape16684-11"
   transform="translate(12.9045,-17.9723)">
					<title
   id="title31">path16</title>
					<path
   d="m 28.61,113.02 1.25,-2.03 a 0.675605,0.658136 -180 0 0 -0.104126,-0.80379 L 27.27,107.56 a 0.696648,0.678635 0 0 1 -0.190488,-0.5524 L 27.33,105.15 a 0.642379,0.625769 0 0 1 0.31011,-0.46609 L 30.71,102.72 a 0.667852,0.650584 -180 0 0 0.290173,-0.73366 L 30.33,99.68 A 0.770854,0.750922 -180 0 0 29.658828,99.157807 L 25.96,98.91 A 0.768639,0.748765 0 0 1 25.417301,98.629484 L 24.18,97.11 A 0.712154,0.69374 0 0 1 24.033827,96.559755 L 24.68,93.11 A 0.704401,0.686188 -180 0 0 24.323357,92.379577 L 22.14,91.16 a 0.735413,0.716397 -180 0 0 -0.856135,0.07876 L 18.55,93.51 a 0.733198,0.714239 0 0 1 -0.585894,0.163994 L 15.97,93.4 A 0.715477,0.696977 0 0 1 15.464957,93.097905 L 13.3,90.17 A 0.753133,0.73366 -180 0 0 12.50921,89.879771 L 10.05,90.45 A 0.708831,0.690503 -180 0 0 9.509516,91.064979 L 9.34,94.53 A 0.68225,0.664609 0 0 1 9.053143,95.031694 L 7.46,96.15 A 0.761994,0.742291 0 0 1 6.876321,96.272994 L 3.18,95.58 A 0.718799,0.700214 -180 0 0 2.408038,95.896121 L 1.15,97.93 a 0.680035,0.662452 -180 0 0 0.088605,0.794079 L 3.73,101.34 c 0.15,0.15 0.22,0.36 0.19,0.56 l -0.25,1.86 a 0.642379,0.625769 0 0 1 -0.310113,0.46609 L 0.29,106.18 a 0.667852,0.650584 -180 0 0 -0.290176,0.73366 L 0.67,109.23 a 0.768639,0.748765 -180 0 0 0.670067,0.52111 L 5.05,110 c 0.22,0.01 0.41,0.12 0.54,0.28 l 1.23,1.52 a 0.708831,0.690503 0 0 1 0.14509,0.55025 L 6.32,115.8 a 0.704401,0.686188 -180 0 0 0.35774,0.73043 L 8.88,117.75 a 0.735413,0.716397 -180 0 0 0.856135,-0.0788 L 12.47,115.4 a 0.733198,0.714239 0 0 1 0.587001,-0.16399 L 15.05,115.52 c 0.21,0.03 0.4,0.13 0.51,0.3 l 2.16,2.93 a 0.753133,0.73366 -180 0 0 0.79079,0.29025 L 20.97,118.46 a 0.708831,0.690503 -180 0 0 0.540482,-0.61498 L 21.68,114.39 a 0.68225,0.664609 0 0 1 0.285732,-0.50169 L 23.56,112.77 a 0.761994,0.742291 0 0 1 0.58257,-0.123 L 27.84,113.34 c 0.32,0.04 0.63,-0.08 0.77,-0.32 z m -16.25,-2.05 c -1.89,-0.83 -3.34,-2.3 -4.06,-4.13 a 7.06284,6.88022 0 0 1 0.16,-5.53 c 0.85,-1.75 2.38,-3.07 4.31,-3.7 a 7.93338,7.72824 0 0 1 5.92,0.28 c 2.62,1.14 4.28,3.51 4.55,6.03 0.12,1.22 -0.11,2.45 -0.65,3.64 -1.75,3.61 -6.32,5.16 -10.23,3.41 z"
   class="st3"
   id="path33"
   inkscape:connector-curvature="0"
   style="fill:#ffffff;stroke:none;stroke-width:11.95600033;stroke-linecap:butt" />
				</g>
			</g>
		</g>
	</g>
</svg>

<?xml version="1.0" encoding="UTF-8" standalone="no"?>
<!DOCTYPE svg PUBLIC "-//W3C//DTD SVG 1.1//EN" "http://www.w3.org/Graphics/SVG/1.1/DTD/svg11.dtd">
<!-- Generated by Microsoft Visio, SVG Export Azure Best Practices.svg Page-1 -->
<svg xmlns="http://www.w3.org/2000/svg" xmlns:xlink="http://www.w3.org/1999/xlink" xmlns:ev="http://www.w3.org/2001/xml-events"
		width="1.73185in" height="1.65332in" viewBox="0 0 124.693 119.039" xml:space="preserve" color-interpolation-filters="sRGB"
		class="st4">
	<style type="text/css">
	<![CDATA[
		.st1 {fill:url(#grad0-6);stroke:none;stroke-linecap:butt;stroke-width:34}
		.st2 {fill:url(#grad0-10);stroke:none;stroke-linecap:butt;stroke-width:34}
		.st3 {fill:#ffffff;stroke:none;stroke-linecap:butt;stroke-width:11.956}
		.st4 {fill:none;fill-rule:evenodd;font-size:12px;overflow:visible;stroke-linecap:square;stroke-miterlimit:3}
	]]>
	</style>

	<defs id="Patterns_And_Gradients">
		<linearGradient id="grad0-6" x1="0" y1="0" x2="1" y2="0" gradientTransform="rotate(-90 0.5 0.5)">
			<stop offset="0" stop-color="#0078d4" stop-opacity="1"/>
			<stop offset="0.82" stop-color="#5ea0ef" stop-opacity="1"/>
		</linearGradient>
		<linearGradient id="grad0-10" x1="0" y1="0" x2="1" y2="0" gradientTransform="rotate(-90 0.5 0.5)">
			<stop offset="0.15" stop-color="#cccccc" stop-opacity="1"/>
			<stop offset="1" stop-color="#707070" stop-opacity="1"/>
		</linearGradient>
	</defs>
	<g>
		<title>Page-1</title>
		<g id="group16297-1" transform="translate(34,-34.0157)">
			<title>Azure Best Practices.16297</title>
			<g id="group16298-2">
				<title>g16</title>
				<g id="shape16299-3" transform="translate(0,-14.2056)">
					<title>rect2</title>
					<path d="M0 117.2 A1.88981 1.84094 -180 0 0 1.89 119.04 L54.8 119.04 A1.88981 1.84094 -180 0 0 56.69 117.2 L56.69
								 84.06 A1.88981 1.84094 -180 0 0 54.8 82.22 L1.89 82.22 A1.88981 1.84094 -180 0 0 0 84.06 L0 117.2
								 Z" class="st1"/>
				</g>
				<g id="shape16300-7" transform="translate(14.1732,0)">
					<title>path14</title>
					<path d="M25.54 115.97 C19.94 115.11 19.72 111.18 19.72 104.83 L8.6 104.83 C8.6 111.18 8.41 115.11 2.8 115.97
								 A3.14961 3.06817 -180 0 0 0 119.04 L28.35 119.04 A3.14961 3.06817 -180 0 0 25.54 115.97 Z"
							class="st2"/>
				</g>
				<g id="shape16301-11" transform="translate(12.9045,-17.9723)">
					<title>path16</title>
					<path d="M28.61 113.02 L29.86 110.99 a0.675605 0.658136 -180 0 0 -0.104126 -0.803789 L27.27 107.56 a0.696648
								 0.678635 0 0 1 -0.190488 -0.552403 L27.33 105.15 a0.642379 0.625769 0 0 1 0.31011 -0.46609 L30.71
								 102.72 a0.667852 0.650584 -180 0 0 0.290173 -0.73366 L30.33 99.68 a0.770854 0.750922 -180 0 0 -0.671172
								 -0.522193 L25.96 98.91 a0.768639 0.748765 0 0 1 -0.542699 -0.280516 L24.18 97.11 a0.712154 0.69374
								 0 0 1 -0.146173 -0.550245 L24.68 93.11 a0.704401 0.686188 -180 0 0 -0.356643 -0.730423 L22.14 91.16
								 a0.735413 0.716397 -180 0 0 -0.856135 0.0787599 L18.55 93.51 a0.733198 0.714239 0 0 1 -0.585894
								 0.163994 L15.97 93.4 a0.715477 0.696977 0 0 1 -0.505043 -0.302095 L13.3 90.17 a0.753133 0.73366
								 -180 0 0 -0.79079 -0.290229 L10.05 90.45 a0.708831 0.690503 -180 0 0 -0.540484 0.614979 L9.34 94.53
								 a0.68225 0.664609 0 0 1 -0.286857 0.501694 L7.46 96.15 a0.761994 0.742291 0 0 1 -0.583679 0.122994
								 L3.18 95.58 a0.718799 0.700214 -180 0 0 -0.771962 0.316121 L1.15 97.93 a0.680035 0.662452 -180 0
								 0 0.0886047 0.794079 L3.73 101.34 C3.88 101.49 3.95 101.7 3.92 101.9 L3.67 103.76 a0.642379 0.625769
								 0 0 1 -0.310113 0.46609 L0.29 106.18 a0.667852 0.650584 -180 0 0 -0.290176 0.73366 L0.67 109.23
								 a0.768639 0.748765 -180 0 0 0.670067 0.521114 L5.05 110 C5.27 110.01 5.46 110.12 5.59 110.28 L6.82
								 111.8 a0.708831 0.690503 0 0 1 0.14509 0.550245 L6.32 115.8 a0.704401 0.686188 -180 0 0 0.35774
								 0.730426 L8.88 117.75 a0.735413 0.716397 -180 0 0 0.856135 -0.0787599 L12.47 115.4 a0.733198 0.714239
								 0 0 1 0.587001 -0.163994 L15.05 115.52 C15.26 115.55 15.45 115.65 15.56 115.82 L17.72 118.75 a0.753133
								 0.73366 -180 0 0 0.79079 0.290249 L20.97 118.46 a0.708831 0.690503 -180 0 0 0.540482 -0.61498 L21.68
								 114.39 a0.68225 0.664609 0 0 1 0.285732 -0.501694 L23.56 112.77 a0.761994 0.742291 0 0 1 0.58257
								 -0.122997 L27.84 113.34 C28.16 113.38 28.47 113.26 28.61 113.02 L28.61 113.02 ZM12.36 110.97 C10.47
								 110.14 9.02 108.67 8.3 106.84 A7.06284 6.88022 0 0 1 8.46 101.31 C9.31 99.56 10.84 98.24 12.77 97.61
								 A7.93338 7.72824 0 0 1 18.69 97.89 C21.31 99.03 22.97 101.4 23.24 103.92 C23.36 105.14 23.13 106.37
								 22.59 107.56 C20.84 111.17 16.27 112.72 12.36 110.97 Z" class="st3"/>
				</g>
			</g>
		</g>
	</g>
</svg>
